assets/img/braze_icons/clock-snooze.svg

<svg fill="none" height="24" viewBox="0 0 24 24" width="24" xmlns="http://www.w3.org/2000/svg"><g clip-rule="evenodd" fill="#801ed7" fill-rule="evenodd"><path d="m18 19c-.5523 0-1-.4477-1-1s.4477-1 1-1h4c.4045 0 .7691.2436.9239.6173s.0692.8038-.2168 1.0898l-2.2929 2.2929h1.5858c.5523 0 1 .4477 1 1s-.4477 1-1 1h-4c-.4045 0-.7691-.2436-.9239-.6173s-.0692-.8038.2168-1.0898l2.2929-2.2929z"/><path d="m12 1c-6.07513 0-11 4.92487-11 11 0 6.0751 4.92487 11 11 11 .805 0 1.5897-.0865 2.3455-.2506.2277-.0495.3415-.0742.423-.1305.0819-.0566.1244-.1066.1671-.1965.0426-.0895.0512-.253.0685-.58.0355-.6718.2964-1.3246.7598-1.8424-.475-.5308-.7639-1.2316-.7639-2 0-1.6569 1.3431-3 3-3h4c.1629 0 .2443 0 .2867-.0073.1858-.0322.3018-.1244.3752-.2981.0167-.0396.0288-.0915.0529-.1953.1866-.8029.2852-1.6396.2852-2.4993 0-6.07513-4.9249-11-11-11zm0 4c.5523 0 1 .44772 1 1v5.382l3.4472 1.7236c.494.247.6942.8476.4472 1.3416s-.8476.6942-1.3416.4472l-4-2c-.3388-.1694-.5528-.5156-.5528-.8944v-6c0-.55228.4477-1 1-1z"/></g></svg>

<svg width="24" height="24" viewBox="0 0 24 24" fill="none" xmlns="http://www.w3.org/2000/svg">
<path fill-rule="evenodd" clip-rule="evenodd" d="M18 19C17.4477 19 17 18.5523 17 18C17 17.4477 17.4477 17 18 17H22C22.4045 17 22.7691 17.2436 22.9239 17.6173C23.0787 17.991 22.9931 18.4211 22.7071 18.7071L20.4142 21H22C22.5523 21 23 21.4477 23 22C23 22.5523 22.5523 23 22 23H18C17.5955 23 17.2309 22.7564 17.0761 22.3827C16.9213 22.009 17.0069 21.5789 17.2929 21.2929L19.5858 19H18Z" fill="#801ED7"/>
<path fill-rule="evenodd" clip-rule="evenodd" d="M12 1C5.92487 1 1 5.92487 1 12C1 18.0751 5.92487 23 12 23C12.805 23 13.5897 22.9135 14.3455 22.7494C14.5732 22.6999 14.687 22.6752 14.7685 22.6189C14.8504 22.5623 14.8929 22.5123 14.9356 22.4224C14.9782 22.3329 14.9868 22.1694 15.0041 21.8424C15.0396 21.1706 15.3005 20.5178 15.7639 20C15.2889 19.4692 15 18.7684 15 18C15 16.3431 16.3431 15 18 15H22C22.1629 15 22.2443 15 22.2867 14.9927C22.4725 14.9605 22.5885 14.8683 22.6619 14.6946C22.6786 14.655 22.6907 14.6031 22.7148 14.4993C22.9014 13.6964 23 12.8597 23 12C23 5.92487 18.0751 1 12 1ZM12 5C12.5523 5 13 5.44772 13 6V11.382L16.4472 13.1056C16.9412 13.3526 17.1414 13.9532 16.8944 14.4472C16.6474 14.9412 16.0468 15.1414 15.5528 14.8944L11.5528 12.8944C11.214 12.725 11 12.3788 11 12V6C11 5.44772 11.4477 5 12 5Z" fill="#801ED7"/>
</svg>
